assets/icons/icon-delete/web/icon-delete.svg

<?xml version="1.0" encoding="UTF-8" standalone="no"?>
<svg width="48px" height="48px" viewBox="0 0 48 48" version="1.1" xmlns="http://www.w3.org/2000/svg" xmlns:xlink="http://www.w3.org/1999/xlink">
    <!-- Generator: Sketch 45.2 (43514) - http://www.bohemiancoding.com/sketch -->
    <title>icon-delete</title>
    <desc>Created with Sketch.</desc>
    <defs></defs>
    <g id="Symbols" stroke="none" stroke-width="1" fill="none" fill-rule="evenodd">
        <g id="icon-delete" fill="#2D2D2D">
            <g transform="translate(14.000000, 13.000000)">
                <path d="M4,19.9998779 C4,20.556281 4.44434777,21 4.99942248,21 L14.0005775,21 C14.5516317,21 15,20.5516782 15,19.9998779 L15,6 L4,6 L4,19.9998779 Z M2,4 L17,4 L17,19.9998779 C17,21.6567996 15.6556493,23 14.0005775,23 L4.99942248,23 C3.34288718,23 2,21.6639569 2,19.9998779 L2,4 Z" id="Rectangle-3" fill-rule="nonzero"></path>
                <path d="M11,4 L11,3 C11,2.45095514 10.5480046,2 9.99074554,2 L9.00925446,2 C8.45179709,2 8,2.4501616 8,3 L8,4 L11,4 Z M6,3 C6,1.34314575 7.34967041,0 9.00925446,0 L9.99074554,0 C11.6527109,0 13,1.34651712 13,3 L13,6 L6,6 L6,3 Z" id="Rectangle-3-Copy" fill-rule="nonzero"></path>
                <rect id="Rectangle-4" x="0" y="4" width="19" height="2" rx="1"></rect>
                <rect id="Rectangle-5" x="6" y="8" width="2" height="11" rx="1"></rect>
                <rect id="Rectangle-5-Copy-2" x="11" y="8" width="2" height="11" rx="1"></rect>
            </g>
        </g>
    </g>
</svg>

<svg width="48" height="48" viewBox="0 0 48 48" xmlns="http://www.w3.org/2000/svg"><title>icon-delete</title><g transform="translate(14 13)" fill="#2D2D2D" fill-rule="evenodd"><path d="M4 20c0 .556.444 1 1 1h9a1 1 0 0 0 1-1V6H4v14zM2 4h15v16a3 3 0 0 1-3 3H5c-1.657 0-3-1.336-3-3V4z" fill-rule="nonzero"/><path d="M11 4V3c0-.549-.452-1-1.01-1h-.98C8.451 2 8 2.45 8 3v1h3zM6 3c0-1.657 1.35-3 3.01-3h.98A3.007 3.007 0 0 1 13 3v3H6V3z" fill-rule="nonzero"/><rect y="4" width="19" height="2" rx="1"/><rect x="6" y="8" width="2" height="11" rx="1"/><rect x="11" y="8" width="2" height="11" rx="1"/></g></svg>
